X:0944
T:Mrs. Dundas McQueen's Reel.
M:C
L:1/8
Q:1/2=104
I: S (1) || (2) || || DS
N:Aird uses a dal segno
Z:Jack Campin * www.campin.me.uk * 2009
K:G
c|:BGd>B cAeA|BGdB    (de/f/) gd    |BGdB  cAeA|[1 BG     (B/c/d) e2  dg    :|\
                                                [2 BG      G/G/G  e2 (d/e/f)||
   g>edB cAeA|g/f/e/f/ gd e2 (d/e/f)|gedB  cAeA|   BG      G/G/G  e2 (d/e/f) |
   gedB  cAeA|g/f/e/f/ gd e2 (d/e/f)|g>edB cAeA|  (B/c/d) (e/f/g) decd      ||
   BGd>B cAeA|BGdB    (de/f/) gd    |BGdB  cAeA|[1 BG     (B/c/d) e2  dg    :|\
                                                [2 BG      G/G/G  e2 (d/e/f)|]

